openframe-frontend-core/src/components/icons-v2/brand-logos/adobe-ae.svg

<svg width="24" height="24" viewBox="0 0 24 24" fill="none" xmlns="http://www.w3.org/2000/svg">
<path d="M19.875 6C19.875 4.96447 19.0355 4.125 18 4.125H6C4.96447 4.125 4.125 4.96447 4.125 6V18C4.125 19.0355 4.96447 19.875 6 19.875H18C19.0355 19.875 19.875 19.0355 19.875 18V6ZM22.125 18C22.125 20.2782 20.2782 22.125 18 22.125H6C3.72183 22.125 1.875 20.2782 1.875 18V6C1.875 3.72183 3.72183 1.875 6 1.875H18C20.2782 1.875 22.125 3.72183 22.125 6V18Z" fill="#888888"/>
<path d="M6.9751 8.14062C7.53349 6.45295 9.96591 6.45302 10.5244 8.14062L10.5742 8.31494L12.3438 15.7388L12.3657 15.8516C12.4416 16.417 12.0771 16.9586 11.5103 17.0937C10.9438 17.2285 10.375 16.9099 10.1875 16.3716L10.1553 16.2603L9.76562 14.6255H7.73389L7.34424 16.2603C7.20011 16.8646 6.5936 17.2378 5.98926 17.0937C5.38489 16.9496 5.01163 16.3431 5.15576 15.7388L6.92676 8.31494L6.9751 8.14062ZM8.27148 12.3755H9.22949L8.74902 10.3672L8.27148 12.3755ZM15.7495 11.1245C15.3093 11.1248 14.9493 11.4512 14.8882 11.8745H16.6123C16.5512 11.451 16.19 11.1245 15.7495 11.1245ZM18.8755 12.5C18.8755 13.3975 18.147 14.1245 17.2495 14.1245H14.8867C14.9473 14.5484 15.3089 14.8743 15.7495 14.8745C16.1211 14.8745 16.4037 14.7283 16.5435 14.5786C16.9674 14.1246 17.6787 14.1006 18.1328 14.5244C18.5868 14.9483 18.6121 15.6596 18.1885 16.1138C17.5784 16.7672 16.6758 17.1245 15.7495 17.1245C14.0238 17.1242 12.625 15.7257 12.625 14V12.0005C12.625 10.2748 14.0238 8.87477 15.7495 8.87451C17.4754 8.87451 18.8755 10.2746 18.8755 12.0005V12.5Z" fill="#888888"/>
</svg>

<svg xmlns="http://www.w3.org/2000/svg" width="24" height="24" fill="none" viewBox="0 0 24 24">
  <path fill="#888" d="M19.875 6c0-1.036-.84-1.875-1.875-1.875H6c-1.036 0-1.875.84-1.875 1.875v12c0 1.035.84 1.875 1.875 1.875h12c1.035 0 1.875-.84 1.875-1.875V6Zm2.25 12A4.125 4.125 0 0 1 18 22.125H6A4.125 4.125 0 0 1 1.875 18V6A4.125 4.125 0 0 1 6 1.875h12A4.125 4.125 0 0 1 22.125 6v12Z"/>
  <path fill="#888" d="M6.975 8.14c.558-1.687 2.99-1.687 3.55 0l.05.175 1.769 7.424.022.113a1.125 1.125 0 0 1-2.178.52l-.033-.112-.39-1.635h-2.03l-.39 1.635a1.125 1.125 0 0 1-2.188-.521l1.77-7.424.05-.174Zm1.296 4.236h.958l-.48-2.009-.478 2.008Zm7.478-1.252a.87.87 0 0 0-.86.75h1.723a.873.873 0 0 0-.862-.75Zm3.126 1.376c0 .898-.728 1.624-1.625 1.624h-2.363c.06.424.422.75.862.75.372 0 .655-.146.795-.295a1.124 1.124 0 0 1 1.645 1.535c-.61.653-1.513 1.01-2.44 1.01A3.125 3.125 0 0 1 12.625 14v-2a3.126 3.126 0 1 1 6.25 0v.5Z"/>
</svg>
